X:519
T:Old Home Place
C:Dean Webb - Arr. Ricky Skaggs
N:Rounder 044 TablEdited by Larry Tanner
L:1/8
Q:1/4=220
M:4/4
K:C
zF2F G2 _B2 | "Bb"z[d3F3] [d3F3]F | "D7"^Fd2c4D | "Eb"^DF G_B ^c=c BG | "Bb"F3F F3^D | 
D^D FA _Bc df | gf eg fe d2 | "F"ag fa gf eg | fe dc _BF ^F=F | "Bb"z[d3F3] [d3F3]F | 
"D7"^Fd2c4c | "Eb"^c=c _BG ^DF GB | "Bb"F4 z_b2b | zg ^c'_b ^gf ^d^c | "F"_b^g f^d ^c_B dc | 
"Bb"_B3B ^c^d f_b | z3^c' _b^g f^d | ^c_B ^dc B^G G2 | _B3F ED [D_B,][DB,] | z8 | 
z8 | z8 | z8 | z8 | 


